icons/sliders-v-17.svg

<svg width="16" height="17" viewBox="0 0 16 17" fill="none" xmlns="http://www.w3.org/2000/svg">
<path d="M4 3.16638C4.27614 3.16638 4.5 3.39024 4.5 3.66638V7.16638C4.5 7.44252 4.27614 7.66638 4 7.66638C3.72386 7.66638 3.5 7.44252 3.5 7.16638V3.66638C3.5 3.39024 3.72386 3.16638 4 3.16638Z" fill="#272431"/>
<path d="M4.5 9.66638H5.5C5.77614 9.66638 6 9.44252 6 9.16638C6 8.89024 5.77614 8.66638 5.5 8.66638H2.5C2.22386 8.66638 2 8.89024 2 9.16638C2 9.44252 2.22386 9.66638 2.5 9.66638H3.5V12.6664C3.5 12.9425 3.72386 13.1664 4 13.1664C4.27614 13.1664 4.5 12.9425 4.5 12.6664V9.66638Z" fill="#272431"/>
<path d="M8.5 8.16638C8.5 7.89024 8.27614 7.66638 8 7.66638C7.72386 7.66638 7.5 7.89024 7.5 8.16638V12.6664C7.5 12.9425 7.72386 13.1664 8 13.1664C8.27614 13.1664 8.5 12.9425 8.5 12.6664V8.16638Z" fill="#272431"/>
<path d="M8 3.16638C8.27614 3.16638 8.5 3.39024 8.5 3.66638V5.66638H9.5C9.77614 5.66638 10 5.89024 10 6.16638C10 6.44252 9.77614 6.66638 9.5 6.66638H6.5C6.22386 6.66638 6 6.44252 6 6.16638C6 5.89024 6.22386 5.66638 6.5 5.66638H7.5V3.66638C7.5 3.39024 7.72386 3.16638 8 3.16638Z" fill="#272431"/>
<path d="M13.5 9.66638C13.7761 9.66638 14 9.89024 14 10.1664C14 10.4425 13.7761 10.6664 13.5 10.6664H12.5V12.6664C12.5 12.9425 12.2761 13.1664 12 13.1664C11.7239 13.1664 11.5 12.9425 11.5 12.6664V10.6664H10.5C10.2239 10.6664 10 10.4425 10 10.1664C10 9.89024 10.2239 9.66638 10.5 9.66638H13.5Z" fill="#272431"/>
<path d="M12 3.16638C12.2761 3.16638 12.5 3.39024 12.5 3.66638V8.16638C12.5 8.44252 12.2761 8.66638 12 8.66638C11.7239 8.66638 11.5 8.44252 11.5 8.16638V3.66638C11.5 3.39024 11.7239 3.16638 12 3.16638Z" fill="#272431"/>
</svg>

<svg xmlns="http://www.w3.org/2000/svg" width="16" height="17" viewBox="0 0 16 17"><path d="M4 3.166a.5.5 0 01.5.5v3.5a.5.5 0 01-1 0v-3.5a.5.5 0 01.5-.5zm.5 6.5h1a.5.5 0 000-1h-3a.5.5 0 000 1h1v3a.5.5 0 001 0v-3zm4-1.5a.5.5 0 00-1 0v4.5a.5.5 0 001 0v-4.5zm-.5-5a.5.5 0 01.5.5v2h1a.5.5 0 010 1h-3a.5.5 0 010-1h1v-2a.5.5 0 01.5-.5zm5.5 6.5a.5.5 0 010 1h-1v2a.5.5 0 01-1 0v-2h-1a.5.5 0 010-1h3zm-1.5-6.5a.5.5 0 01.5.5v4.5a.5.5 0 01-1 0v-4.5a.5.5 0 01.5-.5z"/></svg>
